public/icon-shield.svg

<svg width="24" height="24" fill="none" xmlns="http://www.w3.org/2000/svg"><path fill-rule="evenodd" clip-rule="evenodd" d="M19 1H5c-1.1 0-1.99.9-1.99 2L3 15.93c0 .69.35 1.3.88 1.66L12 23l8.11-5.41c.53-.36.88-.97.88-1.66L21 3c0-1.1-.9-2-2-2zm-7 19.6l-7-4.66V3h14v12.93l-7 4.67zM7.41 10.59l2.58 2.59 6.59-6.6L18 8l-8 8-4-4 1.41-1.41z" fill="#000"/></svg>

<svg width="24" height="24" viewBox="0 0 24 24" fill="none" xmlns="http://www.w3.org/2000/svg">
<g id="beenhere_24px">
<path id="icon/maps/beenhere_24px" fill-rule="evenodd" clip-rule="evenodd" d="M19 1H5C3.9 1 3.01 1.9 3.01 3L3 15.93C3 16.62 3.35 17.23 3.88 17.59L12 23L20.11 17.59C20.64 17.23 20.99 16.62 20.99 15.93L21 3C21 1.9 20.1 1 19 1ZM12 20.6L5 15.94V3H19V15.93L12 20.6ZM7.41 10.59L9.99 13.18L16.58 6.58L18 8L10 16L6 12L7.41 10.59Z" fill="black"/>
</g>
</svg>
